_includes/icons/ios-linkedin-circled.svg

<svg fill="#666" height="50" viewBox="0 0 50 50" width="50" xmlns="http://www.w3.org/2000/svg"><path d="m25 2c-12.690705 0-23 10.309295-23 23s10.309295 23 23 23 23-10.309295 23-23-10.309295-23-23-23zm0 2c11.609824 0 21 9.390176 21 21s-9.390176 21-21 21-21-9.390176-21-21 9.390176-21 21-21zm-9 8c-1.64501 0-3 1.35499-3 3s1.35499 3 3 3 3-1.35499 3-3-1.35499-3-3-3zm0 2c.564129 0 1 .435871 1 1s-.435871 1-1 1-1-.435871-1-1 .435871-1 1-1zm-2 5a1.0001 1.0001 0 0 0 -1 1v15a1.0001 1.0001 0 0 0 1 1h4a1.0001 1.0001 0 0 0 1-1v-15a1.0001 1.0001 0 0 0 -1-1zm8 0a1.0001 1.0001 0 0 0 -1 1v15a1.0001 1.0001 0 0 0 1 1h4a1.0001 1.0001 0 0 0 1-1v-7.5c0-1.379545 1.120455-2.5 2.5-2.5s2.5 1.120455 2.5 2.5v2.5 5a1.0001 1.0001 0 0 0 1 1h4a1.0001 1.0001 0 0 0 1-1v-8.5c0-4.13039-3.36961-7.5-7.5-7.5-1.286472 0-2.440256.41615-3.5.990234a1.0001 1.0001 0 0 0 -1-.990234zm-7 2h2v13h-2zm8 0h2v.816406a1.0001 1.0001 0 0 0 1.693359.720703c.990827-.951804 2.323324-1.537109 3.806641-1.537109 3.04961 0 5.5 2.45039 5.5 5.5v7.5h-2v-4-2.5c0-2.470455-2.029545-4.5-4.5-4.5s-4.5 2.029545-4.5 4.5v6.5h-2z"/></svg>

<svg xmlns="http://www.w3.org/2000/svg" viewBox="0 0 50 50" width="50" height="50" fill="#666"><path style="line-height:normal;text-indent:0;text-align:start;text-decoration-line:none;text-decoration-style:solid;text-decoration-color:#000;text-transform:none;block-progression:tb;isolation:auto;mix-blend-mode:normal" d="M 25 2 C 12.309295 2 2 12.309295 2 25 C 2 37.690705 12.309295 48 25 48 C 37.690705 48 48 37.690705 48 25 C 48 12.309295 37.690705 2 25 2 z M 25 4 C 36.609824 4 46 13.390176 46 25 C 46 36.609824 36.609824 46 25 46 C 13.390176 46 4 36.609824 4 25 C 4 13.390176 13.390176 4 25 4 z M 16 12 C 14.35499 12 13 13.35499 13 15 C 13 16.64501 14.35499 18 16 18 C 17.64501 18 19 16.64501 19 15 C 19 13.35499 17.64501 12 16 12 z M 16 14 C 16.564129 14 17 14.435871 17 15 C 17 15.564129 16.564129 16 16 16 C 15.435871 16 15 15.564129 15 15 C 15 14.435871 15.435871 14 16 14 z M 14 19 A 1.0001 1.0001 0 0 0 13 20 L 13 35 A 1.0001 1.0001 0 0 0 14 36 L 18 36 A 1.0001 1.0001 0 0 0 19 35 L 19 20 A 1.0001 1.0001 0 0 0 18 19 L 14 19 z M 22 19 A 1.0001 1.0001 0 0 0 21 20 L 21 35 A 1.0001 1.0001 0 0 0 22 36 L 26 36 A 1.0001 1.0001 0 0 0 27 35 L 27 27.5 C 27 26.120455 28.120455 25 29.5 25 C 30.879545 25 32 26.120455 32 27.5 L 32 30 L 32 35 A 1.0001 1.0001 0 0 0 33 36 L 37 36 A 1.0001 1.0001 0 0 0 38 35 L 38 26.5 C 38 22.36961 34.63039 19 30.5 19 C 29.213528 19 28.059744 19.41615 27 19.990234 A 1.0001 1.0001 0 0 0 26 19 L 22 19 z M 15 21 L 17 21 L 17 34 L 15 34 L 15 21 z M 23 21 L 25 21 L 25 21.816406 A 1.0001 1.0001 0 0 0 26.693359 22.537109 C 27.684186 21.585305 29.016683 21 30.5 21 C 33.54961 21 36 23.45039 36 26.5 L 36 34 L 34 34 L 34 30 L 34 27.5 C 34 25.029545 31.970455 23 29.5 23 C 27.029545 23 25 25.029545 25 27.5 L 25 34 L 23 34 L 23 21 z"/></svg>
